Flat-Remix-Dark/apps/scalable/blinken.svg

<svg xmlns="http://www.w3.org/2000/svg" xmlns:xlink="http://www.w3.org/1999/xlink" width="384pt" height="384pt" version="1.1" viewBox="0 0 384 384"> <defs> <filter id="alpha" width="100%" height="100%" x="0%" y="0%" filterUnits="objectBoundingBox"> <feColorMatrix in="SourceGraphic" type="matrix" values="0 0 0 0 1 0 0 0 0 1 0 0 0 0 1 0 0 0 1 0"/> </filter> <mask id="mask0"> <g filter="url(#alpha)"> <rect width="384" height="384" x="0" y="0" style="fill:rgb(0%,0%,0%);fill-opacity:0.2"/> </g> </mask> <clipPath id="clip1"> <rect width="384" height="384" x="0" y="0"/> </clipPath> <g id="surface5" clip-path="url(#clip1)"> <path style="fill:rgb(0%,0%,0%)" d="M 24.304688 192.003906 C 24.234375 194.007812 24 195.972656 24 198.003906 C 24 291.074219 98.925781 366 191.996094 366 C 285.066406 366 359.996094 291.074219 359.996094 198.003906 C 359.996094 195.976562 359.761719 194.011719 359.691406 192.003906 C 356.523438 282.253906 283.035156 354 191.992188 354 C 100.949219 354 27.464844 282.253906 24.296875 192.003906 Z M 24.304688 192.003906"/> </g> <mask id="mask1"> <g filter="url(#alpha)"> <rect width="384" height="384" x="0" y="0" style="fill:rgb(0%,0%,0%);fill-opacity:0.2"/> </g> </mask> <clipPath id="clip2"> <rect width="384" height="384" x="0" y="0"/> </clipPath> <g id="surface8" clip-path="url(#clip2)"> <path style="fill:rgb(100.000%,100.000%,100.000%)" d="M 192 24 C 98.929688 24 24 98.929688 24 192 C 24 192.589844 24.066406 193.164062 24.105469 193.746094 C 26.355469 102.664062 100.355469 30 192 30 C 283.644531 30 357.644531 102.664062 359.894531 193.746094 C 359.933594 193.164062 360 192.589844 360 192 C 360 98.929688 285.070312 24 192 24 Z M 192 24"/> </g> </defs> <g> <use mask="url(#mask0)" xlink:href="#surface5"/> <path style="fill:rgb(100.000%,78.039%,18.823%)" d="M 191.996094 24.003906 C 98.925781 24.003906 24 98.933594 24 192.003906 L 191.996094 192.003906 Z M 191.996094 24.003906"/> <path style="fill:rgb(99.215%,28.627%,28.627%)" d="M 191.996094 24.003906 C 285.066406 24.003906 359.996094 98.933594 359.996094 192.003906 L 191.996094 192.003906 Z M 191.996094 24.003906"/> <path style="fill:rgb(4.705%,63.137%,36.862%)" d="M 191.996094 360 C 285.066406 360 359.996094 285.074219 359.996094 192.003906 L 191.996094 192.003906 Z M 191.996094 360"/> <path style="fill:rgb(21.176%,48.235%,94.117%)" d="M 191.996094 360 C 98.925781 360 24 285.074219 24 192.003906 L 191.996094 192.003906 Z M 191.996094 360"/> <use mask="url(#mask1)" xlink:href="#surface8"/> <path style="fill:rgb(6.666%,17.647%,36.078%)" d="M 276 192 C 276 238.390625 238.390625 276 192 276 C 145.609375 276 108 238.390625 108 192 C 108 145.609375 145.609375 108 192 108 C 238.390625 108 276 145.609375 276 192 Z M 276 192"/> </g> </svg>

<svg width="512" height="512" version="1.1" viewBox="0 0 384 384" xmlns="http://www.w3.org/2000/svg"><defs><clipPath><rect width="384" height="384"/></clipPath><clipPath><rect width="384" height="384"/></clipPath></defs><path d="m192 31.502c-93.07 0-168 74.93-168 168 0 93.07 74.925 168 168 168 93.07 0 168-74.925 168-168s-74.93-168-168-168z" opacity=".3"/><path d="m192 24.004c-93.07 0-168 74.93-168 168h168z" fill="#ffc62f"/><path d="m192 24.004c93.07 0 168 74.93 168 168h-168z" fill="#fc4848"/><path d="m192 360c93.07 0 168-74.926 168-168h-168z" fill="#0ba05d"/><path d="m192 360c-93.07 0-168-74.926-168-168h168z" fill="#357aef"/><path d="m276 192c0 46.391-37.609 84-84 84s-84-37.609-84-84 37.609-84 84-84 84 37.609 84 84z" fill="#102c5b"/><path transform="scale(.75)" d="m256 32.004c-124.09 0-223.99 99.904-223.99 224 0 2.0067 0.028153 4.0083 0.080078 6.002 3.1582-121.3 101.82-218 223.91-218 122.09 0 220.76 96.701 223.92 218 0.05192-1.9937 0.08007-3.9953 0.08007-6.002 0-124.09-99.906-224-224-224z" fill="#fffdfd" opacity=".3" stroke-width="1.3333"/></svg>
